X:1
T:Title
%%score 1 { ( 2 4 ) | ( 3 5 6 ) }
L:1/8
Q:1/4=120
M:none
K:G
V:1 treble+8 nm="Part_1"
V:2 treble+8 nm="Part_2"
V:4 treble+8 
V:3 bass 
V:5 bass 
V:6 bass 
V:1
 z2 |!pp! z2 x7 | z2 x7 | z8 | z8 x3/2 | !wedge!b8 !>!Bd/ (6:4:5BA AG G2 | z (3:2:2A _B2 _E E z4 | %7
 (3:2:2B z2 d/ (3AG _Bc d2 x/ | (6:4:3c!^!c- !tenuto!c4 z2 x2 || %9
[K:B] (3=A^GG (3:2:2A G/F/F z F x3/2 | z[K:treble+8] !>!^E2 f2 ^e (3:2:2d z2 | %11
 z2 (3:2:2z z/ (3:2:2!wedge!D z/ (3F B z (3:2:2F c2 x11/8 ||[K:Ab] !wedge!^F!^!F- F4 z2 x5/2 | z8 | %14
 z8 | z !wedge!G Gz2(3:2:2A z/ (3B_c z (3:2:2_G z/ _F/ | %16
 (3:2:2_G2 z (3_C2 G2 z2 (3:2:2!>!C2 z x11/4 | z2 DE (3:2:2!^!_F z/ (3_GE z (3:2:2D z/ x11/8 | %18
 (3:2:2E z/ (3:2:2A2 E B4 x11/8 | z2 G!p!A/ B_cAB x3/2 | %20
 _c2 (6:4:2B2 z (6:4:4z2 AE z2 (6:4:3BA- z x3/4 | !wedge!A4 z2 e2 | z[K:treble+8] c4 z4 x | %23
!p! (3:2:2z2 z (3.B-c z (3:2:2z z/ (3:2:2!>!!^!d z/ (3ec z (3:2:2!>!B z/ x2 | %24
 z2 !>!A(3:2:2B z/ (3:2:2c z/ (3!>!dB z (3:2:2A z/ x7/4 | z2 GA !>!!^!B(3:2:2cz2ez2c | %26
 !wedge!c(3:2:2!>!Bz2B !>!A A4 | z2 Bc z2 (3:2:2!>!d z/ (3ec z (3:2:2!>!B z/ | z2 AB _c(3d!>!BA x | %29
 z4 z2 (3EF z x3/4 | A/B/A- A4 z2 | z2 (3:2:2G z/ (3A B z (3:2:2_c z2 _G_F/ x/ | %32
 (3:2:2_G2 z (3:2:2z2 z (3!wedge!!^!_C2 G2 z2 (3:2:2C2 z x11/8 | %33
 z2 (3:2:2!wedge!D z/ (3E _F z (3:2:2_G z/ (3:2:2z2 ED x3/8 | (3:2:2!wedge!E A2 (3:2:2z2 E !>!B4 | %35
 z2 (3:2:2Bz2zz2!p!_c/ d!>!eBc | d2 (6:4:2_c2 z (6:4:2z2 B(3F=cB- x3/4 | B4 z4 | %38
[K:G] B!>!!^!d/ z BA A (3:2:2z2 z (3:2:2G G2 | z (3:2:2A _B2 !>!_E !>!E z4 | %40
 !wedge!B!>!!^!d/ BA A (3:2:2z2 z (3:2:2G G2 x/4 | !wedge!AA- A4 z2 || %42
[K:B] !wedge!=Az2(3^GG z (3:2:2A G/(3:2:2F/F- !>!F2 | %43
 !wedge!F!^!^E z2 !>!E(3:2:2f ^e/(3:2:2d/!p! z/4 (3:2:2d- !tenuto!d2 | %44
 z4!p! (3:2:2D z/ (3FB z (3:2:2c z/ x11/8 | !wedge!e4 !>!d(3:2:2c- c2 x2 | %46
 !wedge!c2 z2 z2 z !wedge!=G2 x5 | %47
[K:Ab] (3!wedge!!^!GA z (3:2:2B z2 (3:2:2_c z/ (3AB z (3:2:2c z/ d/ z2 | !>!B_G Ez2_C A4 x3/2 | %49
!>(! !wedge!A2 (3z2 A2 e2 x2 | x7/2!>)! !^!c4 z4 x | %51
 (3:2:2z2 B (3:2:2c z/ (3:2:2!>!!^!d z/ (3ec z (3:2:2B z/ x11/4 | %52
 z2 (6:4:2A z/ (3:2:2B z/ (3:2:2!^!c z/ (3!>!dB z (3:2:2A z/ x2 | %53
 z2 (6:4:2G z/ (6:4:2A z/ (6:4:2B z/ (3!>!ce z (3:2:2c z/ x2 | %54
 !wedge!c (3:2:2z z/ (3!>!B!>!B z (3:2:2A z/ A4 x3/8 | %55
 z2 (6:4:2B z/ (6:4:2c z/ (6:4:3d!>!e z (6:4:2c z/ (6:4:2B z/ x2 | z2 AB !^!_c(3:2:2d!p! !^!=d2 x | %57
 z[K:treble+8] z2 !wedge!E2 A2 z2 e2 | !wedge!!^!c/B/c- !>!.c4 (3:2:2z z2 x2 | %59
 z2 (3!wedge!!^!C2 F2 z2 A2 | G4 Mc4 | !wedge!f2 fz2f f2 f2 | !wedge!e4 z2 x2 | %63
 z2 (6:4:2!>!B z2 (3c de e2 | z2!p! !^!B(3:2:2!^!c z/ (3:2:2d/f e2 x11/8 | %65
 z2!p! !^!_c(3:2:2!^!d z/ (3:2:2d/!fermata!_g e2 x11/8 | (3:2:2!wedge!g4 z2 (3:2:2f2 f e x19/8 | %67
 x8 | x8 | x8 | x8 | x8 |] %72
V:2
 z2 |!mf! z/ (=F/ [Bd]2) z/ z/ =F (!>![Bd]/ ^F/ z/) ^f/ x2 | %2
 z/ !>!=F[Bd]/ z/[I:staff +1] G,,,/[I:staff -1] z/[I:staff +1] _E,,[I:staff -1] [bd]2[I:staff +1] G,,,/[I:staff -1] z[I:staff +1] E,, | %3
[I:staff -1] z/ =F/ [Bd]2 z/ z/ =F[_Bd][I:staff +1]C,,,[I:staff -1] x | %4
 z/ =F/ [Ad]2 z/ z/ F x/ [Ad]/F[Ga]/ x2 |!p! z/ =F/ [Bd]2 z/ z/ =F [Bd]/ ^F/ z/ ^f/ x13/2 | %6
 z/ =F[Bd]/ z/[I:staff +1] G,,,/[I:staff -1] z/[I:staff +1] _E,,G,,/[I:staff -1] z[I:staff +1] E,,[I:staff -1] x2 | %7
 z/ =F/ [Bd]2 z/ !wedge!=F[_Bd] x5/2 | z/ =F/ [Ad]2 z/ F/ [Ad]2 x2 || %9
[K:B] z/ [F^G]/ e2 z/ z/ !wedge![FG]e x2 | z/ [^AB]/ g2 z/ z/ [AB]/ g2 x3/2 | %11
 z/ c2[I:staff +1] B,,,,[I:staff -1] z/[I:staff +1] [F,,,D,][I:staff -1] x/[I:staff +1] B,,,,[I:staff -1] z[I:staff +1] [F,,,D,]/[I:staff -1] x11/8 || %12
[K:Ab] z/ ^f[^c'^f'] z/ [fc']/ ^c/ z/ ^F/ [cf]/z/[Fc]/=B,/ z/ [^F,^D]2 z/ x/ | z4 z2 (ga) | %14
 e'4 a4 | z [Ae]a[Ae] [Ad]4[I:staff +1] A,,,[I:staff -1] x/ | z [_Gd]_g[Gd] [G_c]4 x11/4 | %17
 z [_G_c]_f[Gc] [GB]=f[GB]_F x11/8 | e2 [EA]2 B E2 A x3/8 | z [Ae]a[Ae] [Ad]4[I:staff +1] A,,, | %20
[I:staff -1] z [_Gd]_ge a2[I:staff +1] A,,2[I:staff -1] a x7/4 | %21
 [ea][K:bass] [C,A,]2 [C,A,] z [C,A,]z[K:treble][EBe] | z !wedge![_fac']4 z !wedge![fac']4 | %23
 z [egac']2 [egac'] z [egac']2 [egac'] x3 | z [eac']2 [eac'] z [eac']2 [eac'] x7/4 | %25
 z [eab]2 [eab] z [eab]2 [eab] x3 | z [A=da]2 [Ada] z [Ada]2 [Ada] x | %27
 z [egac']2 [egac'] z [egac']2 [egac'] x2 | z [A=da]2 [Ada] z [Ada]2 [Ada] | %29
 z!>(! A2 A z A2 A x3/4!>)! | z A2 A z A2 A | %31
 z[I:staff +1] [F,_C]2 [F,C][I:staff -1] z[I:staff +1] [_F,C]2 [F,C][I:staff -1] x | %32
 z[I:staff +1] [E,B,]2 [E,B,][I:staff -1] z[I:staff +1] [^D,=A,]2 [D,A,][I:staff -1] x27/8 | %33
 z[I:staff +1] [^D,^G,]2 [D,G,][I:staff -1] z[I:staff +1] [=G,_D]2 [G,D][I:staff -1] x11/8 | %34
 z2 z2 x[I:staff +1] [G,E]2 [_G,E] | %35
[I:staff -1] z[I:staff +1] [F,_C]2 [F,C][I:staff -1] z[I:staff +1] [_F,C]2 [F,C][I:staff -1] x7/2 | %36
 z[I:staff +1] [E,B,]2 [E,B,][I:staff -1] z[I:staff +1] [A,D]2 [A,D][I:staff -1] x3/4 | %37
 z [Bfb]2 [Bfb] z/!<(! c/f/b/ z/ f/c'/!<)!f'/ | %38
[K:G]!mf! z/ =f/ [bd']2 z/ z/ =f [bd']/ ^f/ z/ ^f'/ x5/2 | %39
 z/ =f[bd']/ z/[I:staff +1] G,,/[I:staff -1] z/[I:staff +1] _E,[I:staff -1] !wedge![bd']2[I:staff +1] G,,/[I:staff -1] z[I:staff +1] E, | %40
[I:staff -1] z/ =f/ [bd']2 z/ =f[_bd'] x13/4 | z/ =f/ [ad']2 z/ f/ [ad']2 x2 || %42
[K:B] z/ [f^g]/ e'2 z/ z/ [fg]/e' e'/ [fg]/ z/ [=af']/ x3/2 | %43
 z/ [^ab]/ g'2 z/ z/ !wedge![ab]g' x5/2 | %44
 z/ c'2[I:staff +1] B,,,[I:staff -1] z/[I:staff +1] [F,,D,][I:staff -1] x/[I:staff +1] B,,,[I:staff -1] z[I:staff +1] [F,,D,]/[I:staff -1] x11/8 | %45
 z/ f'/[c''f''] z/ x3/2 [c'f']/z/[fc']/B/ z/ [cf]F z/ | %46
 z[I:staff +1] _D,/=G,/[I:staff -1] x2 _e2!>(! =g/b/ _e'2[K:bass] =g'/_b'/ _e''2 [g'=g'']2 | %47
[K:Ab]!p! z [=G,_C]2 [_G,C] z [F,C]2 [_F,C] x5/2 | z [E,B,]2 [E,=A,] z/ D,2 x/ z/ D,2 D2 | %49
 z [C,A,]2 [C,A,] z [C,A,]z[K:treble][EBe] |!<(! z !wedge![_FAc]4 z [FAc]2!<)! !wedge![FAc] | %51
!f! z [egac']2 [egac'] z [egac']2 [egac'] x7/4 | z [eac']2 !wedge!e z !wedge!e2 !wedge!e x2 | %53
 z [eab]2 [eab] z [eab]2 [eab] x2 | z [A=da]2 [Ada] z [Ada]2 [Ada] x11/8 | %55
 z [egac']2 [egac'] z [egac']2 [egac'] x2 | z [A=da]2 [Ada] z [Ada]2 [Ada] | %57
 z[K:bass] [C,A,]2 [C,A,] z [C,A,]z[K:treble][EBe] x3 | z !wedge![_FAc]4 z !wedge![FAc]4 | %59
!p! z [EGAc]2 [EGAc] z [EGAc]2 [Aea] | %60
 z [G=dg]2 [Gdg] z [Gdg]2[I:staff +1] [=D,,,=D,,]/[I:staff -1] x/ | %61
 z [fc'f']2 [fc'f'] z [fc'f']2 x3 | z [ebe']2 [ebe'] z [ebe']2 [ebe'] | %63
 z/ (e'/[a'e'']/) z/ ([e'a']/a/)z/(e/ [ae']/)z/([ea]/A/) z/ (E/[Ae]/) z/ | %64
 z [Beb]2 [Beb] z [Beb]2 [Beb] x3/8 | z [Ad_g]2 [Adg] z [Adg]2 [Adg] x3/8 |!f! z e- e4 x27/8 | x8 | %68
 x8 | x8 | x8 | x8 |] %72
V:3
 z2 | G,,E,/ z G,, E,[I:staff -1] [bd]2[I:staff +1] G,,,/ z E, | %2
 G,,_E,/ z x3/2[I:staff -1] =f [Bd]/G!arpeggio!g/[I:staff +1] x2 | G,,=E,/ z G,, _E,G,,/ z x2 | %4
 _B,,,[=F,,D,]/ z B,,,/ z/ [F,,D,][I:staff -1] !wedge![ad]2[I:staff +1] _B,,,, z [F,,D,] | %5
 G,,E,/ z G,, E,[I:staff -1] [bd]2[I:staff +1] G,,,/ z E, x9/2 | %6
 G,,_E,/ z x3/2[I:staff -1] =f[Bd][I:staff +1] x3 | G,,E,/ z x/ _E, G,,/ z x5/2 | %8
 _B,,,[=F,,D,]/ z z/ [F,,D,] B,,,/ z [F,,D,] x3/2 || %9
[K:B] =D,,[=A,,F,]/ z D,, [A,,F,]D,, z [A,,F,] x/ | F,,[C,A,]/ z F,, [C,A,]F,,/ z [C,A,] x | %11
 B,,,[F,,D,]/ z x55/8 || %12
[K:Ab] =B,,[^F,^D] z B,, z/ [F,D] x/ B,,/ z[I:staff -1] ^f2[I:staff +1] ^F,, | A,,F,_CF, A,,F,CF, | %14
 A,,F,_CF, A,,F,CF, | z [F,_C]2 [F,C] _F,C F,2 x3/2 | z [E,B,]2 [E,B,] [E,=A,]E, A,2 x11/4 | %17
 z [E,_A,]2 [E,A,] [D,=F,]4 x11/8 | G, B,2 A, G,2 _G,2 x3/8 | z [F,_C]2 [F,C] _F,C F,2 x | %20
 z [E,B,]2 [E,B,] z D, x19/4 | E,,4 E,,2 [C,G,]2 | %22
 _G,4[I:staff -1] !wedge![_fac'][I:staff +1] x3[I:staff -1] !wedge![fac'][I:staff +1] x | %23
 F,4- [A,,F,]4 x3 | _F,4- [A,,F,]4 x7/4 | E,4- [A,,E,]4 x3 | =D,4- [B,,,D,]4 x | F,4- [A,,F,]4 x2 | %28
 _F,,4- !arpeggio![F,,C,]4 | z C,2 C, z C,2 C, x3/4 | z [C,_G,]2 [C,G,] z [C,G,]2 [C,G,] | %31
 z x3 A,,4 x | z x83/8 | z x3 B,,4 x11/8 | z [B,E]2 [A,E] z x3 | z x3 A,,4 x7/2 | z x3 F,,4 x3/4 | %37
 z =D,2 D, MF,,2 [D,=A,]2 |[K:G] G,,E,/ z G,, E,[I:staff -1] [bd']2[I:staff +1] G,,/ z E, x/ | %39
 G,,_E,/ z x3/2[I:staff -1] =f [bd']/gg'/[I:staff +1] x2 | G,,E,/ z x/ _E, G,,/ z x13/4 | %41
 _B,,,[=F,,D,]/ z z/ [F,,D,] B,,,/ z [F,,D,] x3/2 || %42
[K:B] =D,,[=A,,F,]/ z D,, [A,,F,]D,, z [A,,F,] x3/2 | F,,[C,A,]/ z F,, [C,A,]F,,/ z [C,A,] x3/2 | %44
 B,,,[I:staff -1] [f'c'']2[I:staff +1] [F,,D,]/ z x39/8 | %45
 B,,[F,D] z B,, z/ [F,D] x/ B,,/ z [F,D]/ x | =E,,,/-=E,,- x/ E,,,2- x3 _E,,,2 x3 (_C,_B,,) | %47
[K:Ab] A,,4 A,,4 x5/2 | %48
 _G,,4 F,,2[I:staff -1] A,/D/[I:staff +1] x2[I:staff -1] A,2[I:staff +1] x/ | E,,4 E,,2 [C,G,]2 | %50
 _G,4[I:staff -1] !wedge![_FAc][I:staff +1] x4 | F,4- [A,,F,]4 x7/4 | _F,4- [A,,F,]4 x2 | %53
 E,4- [A,,E,]4 x2 | =D,4- [B,,,D,]4 x11/8 | F,4- [A,,F,]4 x2 | _F,,,8 | E,,4 E,,2 [C,G,]2 x3 | %58
 _G,4[I:staff -1] !wedge![_FAc][I:staff +1] x3[I:staff -1] !wedge![FAc][I:staff +1] x | %59
 [D,,F,]4 A,,2 [F,C]2 | [E,C]4 [E,,,E,,]2[I:staff -1] [G=dg][I:staff +1] x | %61
 [_D,,,_D,,]2 =A,2 B,4 x2 | B,2 A,2 G,4 | D,,/ z [A,,F,]/ z D,, z/ [A,,F,]/ z D,,/ z [A,,F,]/ | %64
 z A,2 x A,4 x3/8 | z [D,_G,]2 x [D,G,]4 x3/8 | z G, z =D!<)!!<(! _D4 x11/8 | x8 | x8 | x8 | x8 | %71
 x8 |] %72
V:4
 x2 | x3/2 (!>![Bd]/^F)=f/ x11/2 | x3/2 [Bd]/=F=f/ z/ x5 | x3/2 [Bd]/^F=f/ x3/2 [_Bd]/=Fg/ x | %4
 x3/2 [Ad]/=F[Ga]/ x6 | x3/2 [Bd]/^F=f/ x10 | x3/2 [Bd]/=F=f/ z/ x [Bd]/Gg/ x2 | %7
 x3/2 [Bd]/^F=f/ z/ x/ [_Bd]/=F g/ x3/2 | x3/2 [Ad]/=F[Ga]/ z/ x/ [Ad]/F [Ga]/ x3/2 || %9
[K:B] x3/2 e/ [FG]/ z/ [=Af]/ x2 e/ [FG]/ z/ [Af]/ x/ | %10
 x3/2 g/ [AB]/ z/ [ca]/ x3/2 g/ [AB]/ z/ [ca]/ x | x [fc']2 x/ [Fc][CF]/F,/ z/ C,[F,C] x11/8 || %12
[K:Ab] x21/2 | x8 | x8 |[I:staff +1] A,,,4 A,,2 x7/2 | %16
 _G,,4[I:staff -1] z2 z[I:staff +1] _G,,, x11/4 | _F,,4 x43/8 | C,8 x3/8 | A,,4 A,,2 x3 | %20
 _G,,4 F,,4 x11/4 | x[I:staff -1][K:bass] x6[K:treble] x |[I:staff +1] C,8 x2 | _D,,8 x3 | %24
 D,,8 x7/4 | C,,8 x3 | F,,8 x | D,,8 x2 | _F,,,8 | E,,4 E,,4 x3/4 | E,,4 E,,4 | A,,4 x5 | %32
 _G,,4 x59/8 | =E,,4 x43/8 | C,4 C,4 | A,,4 x15/2 | _G,,4 x19/4 | F,,4 x4 | %38
[K:G] x3/2[I:staff -1] [bd']/^f=f'/ x6 | x3/2 [bd']/=f=f'/ z/ x5 | %40
 x3/2 [bd']/^f=f'/ z/ x/ [_bd']/=f g'/ x9/4 | x3/2 [ad']/=f[ga']/ z/ x/ [ad']/f [ga']/ x3/2 || %42
[K:B] x3/2 e'/ [fg]/ z/ [=af']/ x11/2 | x3/2 g'/ [ab]/ z/ [c'a']/ x3/2 g'/ [ab]/ z/ [c'a']/ x3/2 | %44
 x3/2 [c'f']/fc/ [fc'][cf]/F/ z/ C/[Fc] x15/8 | x2 [f'c'']/ c'/ z/ f/ x5 | x2 _d2 x4[K:bass] x6 | %47
[K:Ab] x21/2 | x7[I:staff +1] _F,,2 x5/2 | x7[I:staff -1][K:treble] x |[I:staff +1] C,8 x | %51
 _D,,8 x7/4 | D,,8 x2 | C,,8 x2 | F,,8 x11/8 | D,,8 x2 | x4 !arpeggio![_F,,C,]4 | %57
 x[I:staff -1][K:bass] x6[K:treble] x4 |[I:staff +1] C,8 x2 | x8 | x8 | %61
 x2 D,4[I:staff -1] [fc'f'] x3 |[I:staff +1] C,8 | x8 | C,,8 x3/8 | _C,,8 x3/8 | %66
 x2[I:staff -1] b2 =a4 x11/8 | x8 | x8 | x8 | x8 | x8 |] %72
V:5
 x2 | x9 | x9 | x8 | x19/2 | x27/2 | x9 | x2 G,, x2 C,, x2 | x2 _B,,,/ x11/2 ||[K:B] x8 | x8 | %11
 x3/2[I:staff -1] [c'f]/FC/ x47/8 ||[K:Ab] x21/2 | x8 | x8 | x19/2 | x43/4 | x75/8 | x67/8 | x9 | %20
 x43/4 | x8 |[I:staff +1] =D,,8 x2 | x11 | x39/4 | x11 | x9 | x10 | x8 | x35/4 | x8 | %31
 x4[I:staff -1] d'4 x | x4 _c'4 x27/8 | x75/8 | x8 | x4 d'4 x7/2 | x4 a'4 x3/4 | x8 |[K:G] x19/2 | %39
 x9 | x2[I:staff +1] G,, x2 C,, x11/4 | x2 _B,,,/ x11/2 ||[K:B] x9 | x17/2 | x75/8 | x9 | x14 | %47
[K:Ab] x21/2 | x23/2 | x8 | =D,,8 x | x39/4 | x10 | x10 | x75/8 | x10 | x8 | x11 | =D,,8 x2 | x8 | %60
 x8 | x10 | x8 | x8 | C,,,8 x3/8 | _C,,,8 x3/8 | x75/8 | x8 | x8 | x8 | x8 | x8 |] %72
V:6
 x2 | x9 | x9 | x8 | x19/2 | x27/2 | x9 | x8 | x8 ||[K:B] x8 | x8 | x75/8 ||[K:Ab] x21/2 | x8 | %14
 x8 | x19/2 | x43/4 | x75/8 | x67/8 | x9 | x43/4 | x8 | x5 _G,4 x | x11 | x39/4 | x11 | x9 | x10 | %28
 x8 | x35/4 | x8 | x9 | x91/8 | x75/8 | x8 | x23/2 | x35/4 | x8 |[K:G] x19/2 | x9 | x35/4 | x8 || %42
[K:B] x9 | x17/2 | x75/8 | x9 | x14 |[K:Ab] x21/2 | x23/2 | x8 | x5 _G,4 | x39/4 | x10 | x10 | %54
 x75/8 | x10 | x8 | x11 | x5 _G,4 x | x8 | x8 | x10 | x8 | x8 | x67/8 | x67/8 | x75/8 | x8 | x8 | %69
 x8 | x8 | x8 |] %72

